assets/svg/meditation-yoga_04.svg

<svg width="64" height="64" viewBox="0 0 64 64" fill="none" xmlns="http://www.w3.org/2000/svg">
<path d="M62.6593 31.1432H61.4093H41.6523C40.9253 31.1432 41.6523 30.4712 41.6523 30.4712L41.6443 30.4682C41.9763 30.1632 42.2373 29.8802 42.4263 29.6672C45.7793 25.2412 42.9213 18.6522 42.4823 17.7062C40.9153 14.9492 39.0093 13.4342 37.0953 12.6622C36.9473 12.6072 36.8033 12.5562 36.6303 12.4842C35.7683 12.1652 34.7623 11.8602 33.6503 11.6312C28.7823 10.9032 24.1693 13.1822 24.1293 13.2022C19.9213 15.6042 9.18627 21.9202 4.39327 26.4982C4.15927 26.7172 3.92927 26.9452 3.70627 27.1852C3.53027 27.3712 3.36827 27.5522 3.21627 27.7292C3.17627 27.7782 3.13327 27.8212 3.09527 27.8712C2.95327 28.0452 2.82027 28.2162 2.70227 28.3822L2.73427 28.3672C1.79527 29.6522 1.02727 31.1762 0.554272 33.0212C-0.965728 37.8072 0.666271 48.5012 9.66927 51.8732C10.0683 52.0042 11.8093 52.5152 14.4243 52.5152H37.8903H39.0823C39.9363 52.4812 41.9853 52.2032 43.9523 50.4482C43.9523 50.4482 43.9523 50.4462 43.9553 50.4452L62.3043 34.0352L62.8313 33.5652C65.4363 31.2322 62.6593 31.1432 62.6593 31.1432ZM56.3883 35.7072L43.4913 47.4262C41.4903 49.2422 39.3693 49.5622 38.4243 49.6072H13.8493C11.9213 49.6072 9.89027 48.8942 9.70727 48.8292C9.10727 48.5392 8.47427 48.1972 7.83527 47.7862C0.795272 43.2792 2.90827 34.6732 3.25127 33.4452C3.25927 33.4242 3.26327 33.4052 3.27027 33.3842C3.28627 33.3242 3.29927 33.2842 3.29927 33.2842H3.29627C4.81127 28.4912 8.37827 25.0002 15.0923 24.7972C15.9313 24.8132 18.3603 25.0102 20.5213 26.6482C21.0533 27.0842 21.5843 27.5912 22.1053 28.2072C23.1353 29.5382 25.5263 33.4142 24.4373 37.8942C23.5593 40.8312 22.2873 42.1012 20.5333 43.2822C18.7773 44.4642 15.2963 45.5532 12.0253 43.5542C10.1203 42.2512 8.66727 40.0132 8.93827 37.0452C9.21127 34.0772 12.2693 31.9292 14.9923 32.5652C17.7173 33.2002 19.3223 37.2872 16.3843 38.9222C15.0003 39.5102 14.1643 39.1612 13.6163 38.4122L13.6153 38.4152C13.6153 38.4152 12.8273 37.6812 11.8283 38.1342C10.8383 38.5852 11.1563 39.9932 11.1613 40.0162C12.2403 41.6022 14.3133 42.7902 17.4213 41.6932C18.1373 41.4402 18.7203 41.0452 19.2053 40.5692L19.2123 40.5702C19.2123 40.5702 19.2603 40.5202 19.3263 40.4502C19.4313 40.3402 19.5313 40.2242 19.6263 40.1042C20.6963 38.7862 23.2073 34.8222 19.2123 30.3412C16.8823 28.4762 9.66927 26.4702 6.65527 34.5132C6.54327 34.7782 6.44327 35.0512 6.35627 35.3392C6.34227 35.3802 6.32727 35.4132 6.31327 35.4542C6.31627 35.4562 6.31627 35.4542 6.31827 35.4562C5.78927 37.2772 5.79127 39.5022 6.88027 41.9792C9.30227 47.4892 16.2933 48.9702 21.3793 46.2472C22.3013 45.7532 23.1353 45.1432 23.8763 44.4422L23.8723 44.4482L36.1623 34.8082C36.1623 34.8082 37.0213 34.0322 38.3393 34.0322H56.3633C58.1173 34.0322 56.5953 35.5122 56.3883 35.7072Z" fill="#0E384A"/>
</svg>

<svg width="64" height="64" fill="none" xmlns="http://www.w3.org/2000/svg"><path d="M62.66 31.143H41.651c-.727 0 0-.672 0-.672l-.008-.003c.332-.305.593-.588.782-.8 3.353-4.427.495-11.016.056-11.962-1.567-2.757-3.473-4.272-5.387-5.044-.148-.055-.292-.106-.465-.178a20.593 20.593 0 00-2.98-.853c-4.868-.728-9.48 1.551-9.52 1.571C19.92 15.604 9.185 21.92 4.392 26.498a13.91 13.91 0 00-.687.687c-.176.186-.338.367-.49.544-.04.05-.083.092-.12.142a9.788 9.788 0 00-.394.511l.032-.015a13.446 13.446 0 00-2.18 4.654c-1.52 4.786.112 15.48 9.115 18.852.4.131 2.14.642 4.755.642h24.658c.854-.034 2.903-.312 4.87-2.067 0 0 0-.002.003-.003l18.35-16.41.526-.47c2.605-2.333-.172-2.422-.172-2.422zm-6.272 4.564l-12.897 11.72c-2 1.815-4.122 2.135-5.067 2.18H13.85c-1.928 0-3.959-.713-4.142-.778a17.65 17.65 0 01-1.872-1.043c-7.04-4.507-4.927-13.113-4.584-14.34l.02-.062c.015-.06.028-.1.028-.1h-.003C4.811 28.491 8.378 25 15.092 24.797c.84.016 3.268.213 5.43 1.851.531.436 1.062.943 1.583 1.56 1.03 1.33 3.421 5.206 2.332 9.686-.878 2.937-2.15 4.207-3.904 5.388-1.756 1.182-5.237 2.271-8.508.272-1.905-1.303-3.358-3.54-3.087-6.509.273-2.968 3.331-5.116 6.054-4.48 2.725.635 4.33 4.722 1.392 6.357-1.384.588-2.22.24-2.768-.51v.003s-.789-.734-1.788-.28c-.99.45-.672 1.858-.667 1.881 1.08 1.586 3.152 2.774 6.26 1.677a4.808 4.808 0 001.784-1.124l.007.001.114-.12c.105-.11.205-.226.3-.346 1.07-1.318 3.581-5.282-.414-9.763-2.33-1.865-9.543-3.87-12.557 4.172a8.214 8.214 0 00-.299.826c-.014.041-.029.074-.043.115.003.002.003 0 .005.002-.529 1.821-.527 4.046.562 6.523 2.422 5.51 9.413 6.991 14.5 4.268a11.608 11.608 0 002.496-1.805l-.004.006 12.29-9.64s.86-.776 2.177-.776h18.024c1.754 0 .232 1.48.025 1.675z" fill="#0E384A"/></svg>
